X:412
T:Lady Dumfries
R:Reel
B:The Athole Collection
M:C|
L:1/8
K:F
A|~F2 FA/B/ cAag|~fdcA GFGA|F2 FA/B/ cAag|~fcba g2g:|
g|f/g/a af gefd|cAFA GFDg|f/g/a af gefd|cAba g2 f>g|
f/g/a af gefd|cAFA GFDg|f/g/a af gefd|cAba g2g||

